!!!OTL: 523. Lenz und Wanderlust.
!!!COM: Volksweise
!!!ODT: 1880 (vor)
!!!ARE: Europa, Mitteleuropa, Deutschland
!!!SCT: B0523
!!!TXL: @@DE
!!!YEM: Copyright 1995, estate of Helmut Schaffrath.
**kern	**text
*ICvox	*
*Ivox	*
*clefG2	*
*M6/8	*
*k[]	*
*C:	*
!LO:TX:a:t=Lebhaft.	!
{8e	Es
=1	=1
4e	ʒiehn
8g	nach
4g	fer-
8cc	-nen
=2	=2
4.cc	Lan-
4b}	-den
{8b	die
=3	=3
4a	lie-
8a	-ben
4g	Vö-
8f	-ge-
=4	=4
[4.e	-lein,
4e]}	.
{8e	und
=5	=5
4e	keh-
8g	-ren
4g	ſie
8cc	dann
=6	=6
4.cc	wie-
4b}	-der,
{8a	ſo
=7	=7
4g	ſchaun
8b	ſie
4b	luſ-
8a	-tig
=8	=8
[4.g	drein.
4g]	.
8r}	.
{8g	Jm
=9	=9
4a	Wald,
8a	berg-
4a	-auf,
8a	berg-
=10	=10
4.a	-un-
4dd}	-ter,
{8dd	da
=11	=11
4b	klingt's
8b	aus
8ccL	vol-
8bJ	.
8cc	-ler
=12	=12
[4.dd	Bruſt
4dd]}	.
{8dd	ſo
=13	=13
4ee	hell,
8ee	ſo
4cc	lieb,
8cc	ſo
=14	=14
4.ff	mun-
4ee}	-ter
{8dd	von
=15	=15
4cc	Lenʒ
8cc	und
8bL	Wander-
8aJ	.
8b	.
=16	=16
[4.cc	-luſt.
4cc]	.
8r}	.
==	==
!!!AGN: Wander - Lied
!!!GTL: Wanderlieder
!!!ONB: ESAC (Essen Associative Code) Database: BOEHME
!!!AMT: compound duple
!!!AIN: vox
!!!EED: Helmut Schaffrath
!!!EEV: 1.0
!!Volksweiſe vor 1880.
!!@@COMMENT:"Das Lied hörte Prof. C. Fortlage um 1850 im Osnabrückſchen ſingen, aber nach ganʒ
!!anderer Mel., die er an Erk mittheilte. Die hier ſtehende volksthümliche Weiſe fand ich in
!!neueren Schulheften und als Verf. des Textes Karl Enslin genannt (geb. 1819 in Frankfurt a. M.
!!und dort als Lehrer geſtorben 1875). Dieſer gab Gedichte für die Jugend 1846 und 1851 heraus."
!!@@END:
!!!Text: K. Enslin
!!!URL-scan: https://archive.org/details/BoehmeVtLieder1895/page/n415/mode/2up
!!!ENC: Anna Maria Matuszewska
!!!EEV: 2024/11/07
*-	*-
